packages/astro-components-stencil/src/icons/text-rotate-up.svg

<svg width="24" height="24" viewBox="0 0 24 24" fill="none" xmlns="http://www.w3.org/2000/svg">
<path fill-rule="evenodd" clip-rule="evenodd" d="M18.35 4.35001C18.15 4.15001 17.84 4.15001 17.64 4.35001L15.85 6.14001C15.54 6.46001 15.76 7.00001 16.21 7.00001H17V19C17 19.55 17.45 20 18 20C18.55 20 19 19.55 19 19V7.00001H19.79C20.24 7.00001 20.46 6.46001 20.14 6.15001L18.35 4.35001ZM11.8 10.5L13.4 9.84001C13.76 9.70001 14 9.35001 14 8.96001C14 8.27001 13.29 7.81001 12.66 8.08001L3.69 11.96C3.27 12.13 3 12.54 3 13C3 13.46 3.27 13.87 3.69 14.05L12.66 17.93C13.29 18.2 14 17.73 14 17.04C14 16.65 13.76 16.3 13.4 16.15L11.8 15.5V10.5ZM10 11.13L4.98 13L10 14.87V11.13Z" fill="black"/>
</svg>

<svg xmlns="http://www.w3.org/2000/svg" viewBox="0 0 24 24"><g xmlns="http://www.w3.org/2000/svg" id="text-rotate-up" fill-rule="nonzero">
            <path d="M18.35 4.35c-.2-.2-.51-.2-.71 0l-1.79 1.79c-.31.32-.09.86.36.86H17v12c0 .55.45 1 1 1s1-.45 1-1V7h.79c.45 0 .67-.54.35-.85l-1.79-1.8zM11.8 15.5v-5l1.6-.66c.36-.14.6-.49.6-.88 0-.69-.71-1.15-1.34-.88l-8.97 3.88c-.42.17-.69.58-.69 1.04 0 .46.27.87.69 1.05l8.97 3.88c.63.27 1.34-.2 1.34-.89 0-.39-.24-.74-.6-.89l-1.6-.65zM4.98 13L10 11.13v3.74L4.98 13z"/>
        </g></svg>
